X:540
T:Tartan, The 
C:Joe Buchanan's Scottish Tome - Page 065.2
I:065 2
R:Reel
Z:Carl Allison
L:1/4
M:4/4
K:G
B | "G"G2 G A | "G"B2 A G |"D7" F> E F G | "D7" A3D |
"Am"A2 A B |"D7"c2 B A | "G"G> F G A |"G"B2 d B |
"G"G2 G A |"G7"B2 A G |"C"c2 c d |"C#"e2 e "Am"e |
"G"d2 d d |"Ddim"d2 B c |"D7"d2 d d |"D7"d2 D E |]
"G"G2 B> A |"G" G D2D |"D7"A2 c> B |"D7" A D2 D |
"G"B2 d >c | "Bm"B d2 B |"A7" G2 F G |"D7"A2 D E |
"G"G2 B> A |"G" G D2D | "Am"A2 c> B |"D7" A D2D |
"G" B2 d c |"E7" B d2 c |"A7" B G2 "D7"A |1"G" G4 :|2"G" G^FED |]

